src/icons/tasklist.svg

<svg width="16" height="16" viewBox="0 0 16 16" fill="none" xmlns="http://www.w3.org/2000/svg">
<path fill-rule="evenodd" clip-rule="evenodd" d="M3.57031 5.93506L9.26344 0.999898L8.58482 0.23645L3.27341 4.8323L1.76345 3L1 3.67862L2.84927 5.89265L3.57031 5.93506ZM15 4H7.09686L9.40403 2H15V4ZM6 6H15V8H6V6ZM15 11H6V13H15V11Z" fill="white"/>
</svg>

<svg width="16" height="16" xmlns="http://www.w3.org/2000/svg"><path fill-rule="evenodd" clip-rule="evenodd" d="M3.57 5.935L9.263 1 8.585.236 3.273 4.832 1.763 3 1 3.679l1.85 2.214.72.042zM15 4H7.097l2.307-2H15v2zM6 6h9v2H6V6zm9 5H6v2h9v-2z"/></svg>
